src/assets/img/gouwu.svg

<svg width="27" height="26" xmlns="http://www.w3.org/2000/svg">

 <g>
  <title>background</title>
  <rect fill="none" id="canvas_background" height="28" width="29" y="-1" x="-1"/>
 </g>
 <g>
  <title>Layer 1</title>
  <svg y="0" x="0" height="26" width="26" viewBox="-1 -1 26 26" id="svg_1">
   <style>.aast0{fill-rule:evenodd;clip-rule:evenodd;fill:#fff}</style>
   <g id="svg_2">
    <g id="svg_3">
     <path d="m24,5c0,-0.5 -0.5,-1 -1,-1l-18.4,0l-0.6,-2l-3,0c-0.6,0 -1,0.5 -1,1s0.4,1 1,1l1.6,0l4.4,14l14,0c0.5,0 1,-0.5 1,-1s-0.5,-1 -1,-1l-12.6,0l-0.6,-2l13.8,0l2.4,-9c0,0.1 0,0 0,0zm-3.7,7l-13.2,0l-1.9,-6l16.8,0l-1.7,6zm-12.8,7c-0.8,0 -1.5,0.7 -1.5,1.5s0.7,1.5 1.5,1.5s1.5,-0.7 1.5,-1.5s-0.7,-1.5 -1.5,-1.5zm25.8,-7c-0.8,0 -1.5,0.7 -1.5,1.5s0.7,1.5 1.5,1.5s1.5,-0.7 1.5,-1.5s-0.7,-1.5 -1.5,-1.5z" class="aast0" id="svg_4"/>
    </g>
   </g>
  </svg>
  <ellipse stroke="#ffffff" ry="0.639731" rx="0.639731" id="svg_11" cy="21.450457" cx="21.548823" stroke-width="1.5" fill="#fff"/>
 </g>
</svg>

<svg width="52" height="26" viewBox="0 0 52 26" xmlns="http://www.w3.org/2000/svg" xmlns:xlink="http://www.w3.org/1999/xlink"><svg id="b-24" viewBox="-1 -1 26 26" width="26" height="26"><style>.aast0{fill-rule:evenodd;clip-rule:evenodd;fill:#fff}</style><g id="aaXMLID_2_"><g id="aaXMLID_64_"><path id="aaXMLID_65_" class="aast0" d="M24 5c0-.5-.5-1-1-1H4.6L4 2H1c-.6 0-1 .5-1 1s.4 1 1 1h1.6L7 18h14c.5 0 1-.5 1-1s-.5-1-1-1H8.4l-.6-2h13.8L24 5c0 .1 0 0 0 0zm-3.7 7H7.1L5.2 6H22l-1.7 6zM7.5 19c-.8 0-1.5.7-1.5 1.5S6.7 22 7.5 22 9 21.3 9 20.5 8.3 19 7.5 19zm13 0c-.8 0-1.5.7-1.5 1.5s.7 1.5 1.5 1.5 1.5-.7 1.5-1.5-.7-1.5-1.5-1.5z"/></g></g></svg><svg id="t-24" viewBox="-1 -1 26 26" width="26" height="26" x="26"><style>.abst0{fill-rule:evenodd;clip-rule:evenodd;fill:#fff}</style><g id="abXMLID_3_"><g id="abXMLID_19_"><path id="abXMLID_20_" class="abst0" d="M14 4l-1.3 1.3 5.7 5.8H2v1.8h16.4l-5.7 5.8L14 20l8-8z"/></g></g></svg></svg>
